src/images/arrow.svg

<svg fill="none" height="17" viewBox="0 0 18 17" width="18" xmlns="http://www.w3.org/2000/svg"><path d="m2.60653 16.5241-1.661927-1.6619 12.357997-12.37925h-9.5455l.02131-2.301132h13.48719v13.508482h-2.3224l.0213-9.54541z" fill="#fff"/></svg>

<svg width="18" height="17" viewBox="0 0 18 17" fill="none" xmlns="http://www.w3.org/2000/svg">
<path d="M2.60653 16.5241L0.944603 14.8622L13.3026 2.48295H3.7571L3.77841 0.181818H17.2656V13.6903H14.9432L14.9645 4.14489L2.60653 16.5241Z" fill="white"/>
</svg>
